X: 35
T: No_41_I_Shall_Paint_My_Face.krn
N: Derived from No_41_I_Shall_Paint_My_Face.krn
%%abc-version 2.0
%%abcx-abcm2ps-target-version 5.9.1 (29 Sep 2008)
%%abc-creator hum2abc beta
%%abcx-conversion-date 2019/03/15 08:27:55
%%humdrum-veritas 4254408702
%%humdrum-veritas-data 2561097576
%%linebreak <none>
%%barnumbers 0
L: 1/8
M: 3/4
%%staves {1 2}
V: 1 clef=bass
V: 2 clef=bass
K: A
[V:1] [K:clef=bass][M:3/4]DD CA, A,B, | 
[V:2] [K:clef=bass][M:3/4]G,,2G,,2G,,2 | 
[V:1] A,2A,2A, z | 
[V:2] G,,2G,,2G,,2 | 
[V:1] DD CA, A,B, | 
[V:2] z6 | 
[V:1] A,2A,2A, z | 
[V:2] z6 | 
[V:1] [M:2/4]C3/A,/ (A,F,) | 
[V:2] [M:2/4]z4 | 
[V:1] A,2(CA,) | 
[V:2] z4 | 
[V:1] [M:3/4]A,2F,2E,F, | 
[V:2] [M:3/4]z6 | 
[V:1] E,2E,2E, z | 
[V:2] z6 | 
[V:1] [M:2/4]C3/A,/ (A,F,) | 
[V:2] [M:2/4]z4 | 
[V:1] A,2(CA,) | 
[V:2] z4 | 
[V:1] [M:3/4]A,2F,2E,F, | 
[V:2] [M:3/4]z6 | 
[V:1] E,2E,2E, z ]|:  
[V:2] z6 ]|:  
[V:1] [M:2/4]E,2C,3/E,/ | 
[V:2] [M:2/4]z4 | 
[V:1] E,2E, z | 
[V:2] z4 | 
[V:1] E,2C,3/E,/ | 
[V:2] z4 | 
[V:1] [M:3/4]E,2E, zA,2 | 
[V:2] [M:3/4]z6 | 
[V:1] [M:2/4]A,2A,2 | 
[V:2] [M:2/4]z4 | 
[V:1] A, z E,E, | 
[V:2] z4 | 
[V:1] (F,2E,)F, | 
[V:2] z4 | 
[V:1] E,2E,2 | 
[V:2] z4 | 
[V:1] E, zA,2 | 
[V:2] z4 | 
[V:1] A,2A,2 | 
[V:2] z4 | 
[V:1] A, z E,E, | 
[V:2] z4 | 
[V:1] (F,2E,)F, | 
[V:2] z4 | 
[V:1] [M:3/4]E,2E,2E, z :|]  
[V:2] [M:3/4]z6 :|]  



